tetrification/src/assets/images/avatars/avatarM.svg

<svg width="250" height="254" viewBox="0 0 250 254" fill="none" xmlns="http://www.w3.org/2000/svg">
<g clip-path="url(#clip0_538_3794)">
<path d="M246.925 152.834C262.137 85.3664 219.881 18.3175 152.542 3.07595C85.2034 -12.1656 18.2825 30.1718 3.07001 97.6392C-12.1425 165.107 30.1142 232.156 97.4528 247.397C164.791 262.639 231.712 220.301 246.925 152.834Z" fill="white"/>
<mask id="mask0_538_3794" style="mask-type:luminance" maskUnits="userSpaceOnUse" x="-1" y="-1" width="252" height="252">
<path d="M246.925 152.834C262.137 85.3664 219.881 18.3175 152.542 3.07595C85.2034 -12.1656 18.2825 30.1718 3.07001 97.6392C-12.1425 165.107 30.1142 232.156 97.4528 247.397C164.791 262.639 231.712 220.301 246.925 152.834Z" fill="white"/>
</mask>
<g mask="url(#mask0_538_3794)">
<path d="M100.061 18.6508C100.061 18.6508 117.615 -5.16101 148.699 10.7209C182.812 28.1312 164.374 65.6763 164.374 65.6763L91.1074 51.7658L100.061 18.6508Z" fill="#1E0B02"/>
<path d="M85.4039 65.8536C85.4039 65.8536 66.3245 28.1313 100.062 18.6509L106.119 38.8743L85.4039 65.8536Z" fill="#1E0B02"/>
<path d="M101.698 83.264C101.767 85.9605 101.036 88.6169 99.599 90.8976C98.1618 93.1784 96.0821 94.9812 93.6226 96.0782C91.1632 97.1753 88.4344 97.5174 85.781 97.0614C83.1276 96.6054 80.6687 95.3717 78.7148 93.5161C76.7609 91.6605 75.3997 89.2663 74.8033 86.6361C74.2068 84.0058 74.4019 81.2574 75.3637 78.7381C76.3256 76.2188 78.0111 74.0417 80.2074 72.4818C82.4037 70.9218 85.0121 70.049 87.7032 69.9737C89.4944 69.9207 91.2783 70.2229 92.9525 70.8629C94.6267 71.503 96.1581 72.4684 97.4586 73.7035C98.7592 74.9386 99.8032 76.419 100.531 78.0598C101.258 79.7005 101.655 81.4692 101.698 83.264Z" fill="#E8B499"/>
<path d="M80.3184 81.7357C80.3184 81.7357 85.7349 79.0998 90.8861 88.5137" stroke="#C47268" stroke-width="0.69" stroke-linecap="round" stroke-linejoin="round"/>
<path d="M151.396 83.6403C151.396 86.339 152.195 88.9771 153.692 91.2209C155.188 93.4648 157.315 95.2137 159.804 96.2464C162.292 97.2791 165.03 97.5493 167.672 97.0229C170.314 96.4964 172.74 95.1968 174.645 93.2886C176.55 91.3803 177.847 88.9491 178.372 86.3023C178.898 83.6555 178.628 80.912 177.597 78.4187C176.566 75.9255 174.821 73.7945 172.581 72.2952C170.342 70.7958 167.709 69.9956 165.015 69.9956C161.403 69.9956 157.939 71.4332 155.385 73.992C152.831 76.5509 151.396 80.0215 151.396 83.6403Z" fill="#E8B499"/>
<path d="M172.687 81.5139C172.687 81.5139 167.204 79.033 162.318 88.602" stroke="#C47268" stroke-width="0.69" stroke-linecap="round" stroke-linejoin="round"/>
<path d="M144.013 115.183C139.543 118.238 134.575 120.487 129.333 121.828C124.524 122.448 119.646 121.467 115.449 119.037L107.269 114.341L103.908 159.306L104.793 160.037C110.563 164.828 117.808 167.474 125.302 167.526C132.796 167.579 140.077 165.035 145.914 160.325L147.66 158.908L144.013 115.183Z" fill="#E8B499"/>
<path d="M103.908 109.645C103.908 109.645 111.558 134.675 129.112 134.409C143.548 134.188 145.914 109.645 145.914 109.645H103.908Z" fill="#1E0B02"/>
<path d="M163.313 59.8065C163.379 72.6878 161.992 85.5354 159.179 98.1047C156.968 107.364 148.943 113.854 140.409 119.103L138.862 120.056C129.841 125.616 122.391 125.793 113.194 120.543C103.908 115.227 95.2641 108.205 93.2965 98.3927C90.9211 85.8425 89.5168 73.1272 89.0959 60.3602C89.0959 60.3602 83.7015 18.5401 123.806 19.0938C163.91 19.6476 163.313 59.8065 163.313 59.8065Z" fill="#E8B499"/>
<path d="M112.066 72.1222C112.071 72.7671 111.884 73.3988 111.529 73.9372C111.175 74.4755 110.669 74.8963 110.075 75.1462C109.482 75.396 108.828 75.4637 108.196 75.3405C107.564 75.2174 106.983 74.9091 106.526 74.4546C106.069 74.0001 105.758 73.42 105.63 72.7877C105.503 72.1555 105.566 71.4997 105.812 70.9034C106.057 70.3071 106.474 69.7973 107.008 69.4385C107.543 69.0797 108.173 68.8882 108.816 68.8882C109.674 68.8882 110.498 69.2282 111.107 69.834C111.715 70.4399 112.06 71.2624 112.066 72.1222Z" fill="#1E0B02"/>
<path d="M143.924 72.1222C143.928 72.7671 143.741 73.3988 143.387 73.9372C143.032 74.4755 142.526 74.8963 141.933 75.1462C141.339 75.396 140.685 75.4637 140.053 75.3405C139.421 75.2174 138.84 74.9091 138.384 74.4546C137.927 74.0001 137.615 73.42 137.488 72.7877C137.361 72.1555 137.424 71.4997 137.669 70.9034C137.914 70.3071 138.331 69.7973 138.866 69.4385C139.401 69.0797 140.03 68.8882 140.674 68.8882C141.532 68.8882 142.355 69.2282 142.964 69.834C143.573 70.4399 143.918 71.2624 143.924 72.1222Z" fill="#1E0B02"/>
<path d="M121.793 80.6499V85.8553H126.016" stroke="#C47268" stroke-width="0.69" stroke-linecap="round" stroke-linejoin="round"/>
<path d="M96.7227 58.3889L117.924 56.4618C117.924 56.4618 116.023 50.9685 107.467 51.8545C98.9114 52.7405 96.7227 58.3889 96.7227 58.3889Z" fill="black"/>
<path d="M151.396 58.3889L130.172 56.4618C130.172 56.4618 132.073 50.9685 140.651 51.8545C149.229 52.7405 151.396 58.3889 151.396 58.3889Z" fill="black"/>
<path d="M114.541 93.2759H135.455C135.455 93.2759 134.483 99.6774 124.689 99.6774C114.895 99.6774 114.541 93.2759 114.541 93.2759Z" fill="white"/>
<path d="M90.2898 80.0075C90.2898 80.0075 91.8595 28.9063 91.2184 27.4443C91.2184 27.4443 73.1338 44.3009 90.2898 80.0075Z" fill="#1E0B02"/>
<path d="M161.787 79.7422L159.178 24.1665C159.178 24.1665 176.466 41.4661 161.787 79.7422Z" fill="#1E0B02"/>
<path d="M107.092 22.9258C107.092 22.9258 94.6448 26.2927 95.0649 38.4311C95.4849 50.5696 87.2165 62.7967 87.2165 62.7967L83.458 50.5696C83.458 50.5696 80.5398 27.7767 107.092 22.9258Z" fill="#1E0B02"/>
<path d="M103.909 23.945C103.909 23.945 113.216 18.651 122.48 30.3022C130.439 40.2477 151.242 50.5034 163.601 40.7351C163.601 40.7351 155.73 12.5817 125.088 13.1355C94.4463 13.6893 103.909 23.945 103.909 23.945Z" fill="#1E0B02"/>
<path d="M230.765 254H19.8965C23.7433 238.007 27.7007 223.787 31.6139 212.711C37.4062 196.364 45.741 186.795 52.6388 181.346C56.2622 178.287 60.4445 175.962 64.9531 174.502L79.5887 168.344H172.178L185.708 174.502C185.708 174.502 207.463 179.995 219.048 212.645C222.961 223.72 226.918 238.007 230.765 254Z" fill="#EF758D"/>
<path d="M126.966 148.83L172.155 168.455C172.155 168.455 125.728 210.43 79.5879 168.344L126.966 148.83Z" fill="#E8B499"/>
<path d="M79.5879 168.344C85.5814 174.508 92.7707 179.378 100.713 182.655C108.656 185.931 117.184 187.543 125.772 187.393C134.387 187.53 142.94 185.921 150.918 182.662C158.896 179.404 166.135 174.564 172.199 168.432" stroke="white" stroke-width="1.94" stroke-miterlimit="10"/>
</g>
</g>
<defs>
<clipPath id="clip0_538_3794">
<rect width="250" height="254" fill="white"/>
</clipPath>
</defs>
</svg>

<svg xmlns="http://www.w3.org/2000/svg" width="250" height="254" fill="none" xmlns:v="https://vecta.io/nano"><style><![CDATA[.M{fill:#1e0b02}.N{fill:#e8b499}.O{stroke:#c47268}.P{stroke-width:.69}.Q{stroke-linecap:round}.R{stroke-linejoin:round}]]></style><g clip-path="url(#B)"><path d="M246.925 152.834c15.212-67.468-27.044-134.516-94.383-149.758S18.283 30.172 3.07 97.639s27.044 134.517 94.383 149.758 134.259-27.096 149.472-94.563z" fill="#fff"/><mask id="A" maskUnits="userSpaceOnUse" x="-1" y="-1" width="252" height="252"><path d="M246.925 152.834c15.212-67.468-27.044-134.516-94.383-149.758S18.283 30.172 3.07 97.639s27.044 134.517 94.383 149.758 134.259-27.096 149.472-94.563z" fill="#fff"/></mask><g mask="url(#A)"><path d="M100.061 18.651s17.554-23.812 48.638-7.93c34.113 17.41 15.675 54.955 15.675 54.955l-73.267-13.91 8.954-33.115z" class="M"/><path d="M85.404 65.854s-19.079-37.722 14.658-47.203l6.057 20.223-20.715 26.979z" class="M"/><path d="M101.698 83.264c.069 2.697-.662 5.353-2.099 7.634s-3.517 4.084-5.976 5.181-5.188 1.439-7.842.983a13.61 13.61 0 0 1-7.066-3.545 13.65 13.65 0 0 1-3.912-6.88 13.67 13.67 0 0 1 .56-7.898 13.64 13.64 0 0 1 4.844-6.256 13.6 13.6 0 0 1 7.496-2.508c1.791-.053 3.575.249 5.249.889s3.206 1.606 4.506 2.841 2.345 2.715 3.072 4.356 1.124 3.409 1.167 5.204z" class="N"/><path d="M80.318 81.736s5.416-2.636 10.568 6.778" class="O P Q R"/><path d="M151.396 83.64a13.66 13.66 0 0 0 2.296 7.581 13.62 13.62 0 0 0 6.112 5.025c2.488 1.033 5.226 1.303 7.868.777a13.61 13.61 0 0 0 6.973-3.734c1.905-1.908 3.202-4.34 3.727-6.986s.256-5.39-.775-7.884a13.64 13.64 0 0 0-5.016-6.124 13.6 13.6 0 0 0-7.566-2.3 13.61 13.61 0 0 0-9.63 3.996 13.66 13.66 0 0 0-3.989 9.648z" class="N"/><path d="M172.687 81.514s-5.483-2.481-10.369 7.088" class="O P Q R"/><path d="M144.013 115.183c-4.47 3.055-9.438 5.304-14.68 6.645-4.809.62-9.687-.361-13.884-2.791l-8.18-4.696-3.361 44.965.885.731c5.77 4.791 13.015 7.437 20.509 7.489s14.775-2.491 20.612-7.201l1.746-1.417-3.647-43.725z" class="N"/><path d="M103.908 109.645s7.65 25.03 25.204 24.764c14.436-.221 16.802-24.764 16.802-24.764h-42.006z" class="M"/><path d="M163.313 59.807a171.34 171.34 0 0 1-4.134 38.298c-2.211 9.259-10.236 15.749-18.77 20.998l-1.547.953c-9.021 5.56-16.471 5.737-25.668.487-9.286-5.316-17.93-12.338-19.898-22.15-2.375-12.55-3.78-25.266-4.201-38.033 0 0-5.394-41.82 34.71-41.266s39.507 40.713 39.507 40.713z" class="N"/><path d="M112.066 72.122a3.25 3.25 0 0 1-1.991 3.024 3.24 3.24 0 0 1-1.879.194 3.25 3.25 0 0 1-1.67-.886 3.26 3.26 0 0 1 .482-5.016 3.25 3.25 0 0 1 4.099.395 3.26 3.26 0 0 1 .959 2.288zm31.858 0c.004.645-.183 1.277-.537 1.815a3.26 3.26 0 0 1-1.454 1.209 3.24 3.24 0 0 1-3.549-.692c-.457-.454-.769-1.035-.896-1.667s-.064-1.288.181-1.884.662-1.106 1.197-1.465 1.164-.55 1.808-.55c.858 0 1.681.34 2.29.946a3.26 3.26 0 0 1 .96 2.288z" class="M"/><path d="M121.793 80.65v5.205h4.223" class="O P Q R"/><path d="M96.723 58.389l21.201-1.927s-1.901-5.493-10.457-4.607-10.744 6.534-10.744 6.534zm54.673 0l-21.224-1.927s1.901-5.493 10.479-4.607 10.745 6.534 10.745 6.534z" fill="#000"/><path d="M114.541 93.276h20.914s-.972 6.402-10.766 6.402-10.148-6.402-10.148-6.402z" fill="#fff"/><path d="M90.29 80.008l.929-52.563s-18.085 16.857-.929 52.563zm71.497-.266l-2.609-55.576s17.288 17.3 2.609 55.576z" class="M"/><path d="M107.092 22.926s-12.447 3.367-12.027 15.505-7.848 24.366-7.848 24.366L83.458 50.57s-2.918-22.793 23.634-27.644z" class="M"/><path d="M103.909 23.945s9.307-5.294 18.571 6.357c7.959 9.946 28.762 20.201 41.121 10.433 0 0-7.871-28.153-38.513-27.6s-21.179 10.81-21.179 10.81z" class="M"/><path d="M230.765 254H19.897c3.847-15.993 7.804-30.213 11.717-41.289 5.792-16.347 14.127-25.916 21.025-31.365a36.54 36.54 0 0 1 12.314-6.844l14.636-6.158h92.589l13.53 6.158s21.755 5.493 33.34 38.143c3.913 11.075 7.87 25.362 11.717 41.355z" fill="#ef758d"/><path d="M126.966 148.83l45.189 19.625s-46.427 41.975-92.567-.111l47.378-19.514z" class="N"/><path d="M79.588 168.344a62.96 62.96 0 0 0 21.125 14.311 62.84 62.84 0 0 0 25.059 4.738 63.81 63.81 0 0 0 25.146-4.731c7.978-3.258 15.217-8.098 21.281-14.23" stroke="#fff" stroke-width="1.94" stroke-miterlimit="10"/></g></g><defs><clipPath id="B"><path fill="#fff" d="M0 0h250v254H0z"/></clipPath></defs></svg>
